!!!COM: Beethoven
!!!OTL: 6 Variationen uber "Nel cor piu non mi sento" von G. Paisiello
!!!Variation: Variation 3 c
**function	**kern	**comments	**kern	**kern
*M6/8	*M6/8	*	*staff2	*staff1
*G:	*G:	*	*clefF4	*clefG2
*	*tb16	*	*k[f#]	*k[f#]
*	*	*	*M6/8	*M6/8
*	*	*	*G:	*G:
*	*	*	*tb16	*tb16
8T	8T	.	8d	8r
=	=	=	=69	=69
4.P	4.V6/ii	Sequence	4G#	16r
.	.	.	.	16eLL
.	.	.	.	16g#
.	.	.	.	16bJ
.	.	.	8r	8eeJ
4.P	4.V2/ii	.	4d	16r
.	.	.	.	16eeLL
.	.	.	.	16gg#
.	.	.	.	16bbJ
.	.	.	8r	8eeeJ
=	=	=	=70	=70
4.P	4.ii6	Sequence	4c	16r
.	.	.	.	16eeLL
.	.	.	.	16aa
.	.	.	.	16cccJ
.	.	.	8r	8eeeJ
4.P	4.ii	.	16r	4.ee 4.aa 4.ccc 4.eee
.	.	.	16AALL	.
.	.	.	16C	.
.	.	.	16EJ	.
.	.	.	8AJ	.
=	=	=	=71	=71
4.D	4.V6	Sequence	4F#	16r
.	.	.	.	16dLL
.	.	.	.	16f#
.	.	.	.	16aJ
.	.	.	8r	8ddJ
4.D	4.V2	4.D	4c	16r
.	.	.	.	16ddLL
.	.	.	.	16ff#
.	.	.	.	16aaJ
.	.	.	8r	8dddJ
=	=	=	=72	=72
4.D	4.I6	4.T Sequence	4B	16r
.	.	.	.	16ddLL
.	.	.	.	16gg
.	.	.	.	16bbJ
.	.	.	8r	8dddJ
4.D	4.I	4.T	16r	4.dd 4.gg 4.bb 4.ddd
.	.	.	16GGLL	.
.	.	.	16BB	.
.	.	.	16DJ	.
.	.	.	8GJ	.
=	=	=	=73	=73
2.D	2.viio6/V	2.P	4E	16r
.	.	.	.	16GLL
.	.	.	.	16c#
.	.	.	.	16eJ
.	.	.	8r	8gJ
.	.	.	4E	16r
.	.	.	.	16gLL
.	.	.	.	16cc#
.	.	.	.	16eeJ
.	.	.	8r	8ggJ
=	=	=	=74	=74
2.D	2.V	2.D	4D	8r
.	.	.	.	16ff#LL
.	.	.	.	16gg
.	.	.	8r	16aa
.	.	.	.	16ff#JJ
.	.	.	4r	4dd;
.	.	.	8r	8dd
=	=	=	=75	=75
4.D	4.V65	4.D	16r	4.a 4.cc 4.dd
.	.	.	16FF#LL	.
.	.	.	16AA	.
.	.	.	16DJ	.
.	.	.	8F#J	.
4.D	4.I	4.T	16r	4.g 4.b 4.dd
.	.	.	16GGLL	.
.	.	.	16BB	.
.	.	.	16DJ	.
.	.	.	8GJ	.
=	=	=	=76	=76
2.T	2.V	2.D	16r	4f# 4a 4dd
.	.	.	16DDLL	.
.	.	.	16FF#	.
.	.	.	16AAJ	.
.	.	.	8DJ	8r
.	.	.	4D	16r
.	.	.	.	16dLL
.	.	.	.	16f#
.	.	.	.	16aJ
.	.	.	8r	8ddJ
*-	*-	*-	*-	*-
